src/assets/img/vk.svg

<svg width="30" height="30" viewBox="0 0 30 30" fill="none" xmlns="http://www.w3.org/2000/svg">
<path d="M30 0H0V30H30V0Z" fill="#2E2E2E"/>
<path d="M7.7715 9.12974C8.49047 10.9053 9.40167 12.5793 10.6018 14.0821C10.761 14.2821 10.9616 14.4599 11.173 14.6046C11.4817 14.8166 11.773 14.7421 11.8985 14.389C12.0313 14.0183 12.1532 13.2672 12.1604 12.8781C12.1802 11.8612 12.1574 11.1947 12.1028 10.179C12.0674 9.52853 11.8361 8.95733 10.8793 8.78493C10.5837 8.73148 10.5563 8.48824 10.7461 8.2456C11.1414 7.74043 11.692 7.65992 12.289 7.62806C13.2567 7.5758 14.2279 7.61845 15.1968 7.62806C15.5914 7.63168 15.9884 7.66348 16.3771 7.7482C16.884 7.85873 17.1555 8.21433 17.2391 8.70923C17.2823 8.96451 17.3046 9.22697 17.2985 9.48528C17.2733 10.5953 17.2198 11.7047 17.2072 12.8141C17.2018 13.2495 17.2336 13.6959 17.3267 14.1199C17.4571 14.7109 17.8595 14.8593 18.271 14.4323C18.7935 13.8899 19.2543 13.2796 19.6867 12.6598C20.4723 11.5323 21.0591 10.295 21.5643 9.01928C21.8256 8.361 22.0256 8.21802 22.7337 8.21624C24.0648 8.21321 25.3958 8.21203 26.7269 8.21624C26.9629 8.21742 27.2098 8.23967 27.4326 8.31057C27.7942 8.4259 27.9378 8.72081 27.8531 9.09505C27.6555 9.97201 27.1816 10.7174 26.674 11.434C25.8595 12.5836 25.006 13.7057 24.1724 14.8421C24.066 14.9868 23.9724 15.1412 23.8852 15.2979C23.5735 15.8613 23.5951 16.1773 24.0498 16.6463C24.7736 17.393 25.5484 18.0915 26.2494 18.8585C26.7588 19.4165 27.2302 20.022 27.6339 20.6592C28.1444 21.4653 27.8291 22.2245 26.8753 22.3596C26.2752 22.4444 23.3442 22.3603 23.1927 22.3596C22.4047 22.3561 21.7139 22.0828 21.1577 21.5476C20.539 20.9518 19.9768 20.2982 19.3828 19.6766C19.2038 19.4891 19.0127 19.3096 18.8068 19.1528C18.3208 18.7821 17.8439 18.8644 17.6168 19.4351C17.4228 19.9253 17.2552 21.2124 17.2474 21.3223C17.2066 21.8971 16.8408 22.2635 16.1969 22.299C14.3379 22.3999 12.5365 22.1926 10.8583 21.2935C9.43597 20.5319 8.30016 19.4549 7.31629 18.199C5.7534 16.2041 4.51892 14.0113 3.39187 11.7541C3.33427 11.6387 2.19275 9.20965 2.16207 9.09492C2.0601 8.71074 2.15522 8.34375 2.47982 8.21742C2.68218 8.13869 6.44585 8.21716 6.50845 8.22052C7.109 8.25304 7.51852 8.50641 7.7715 9.12974Z" fill="white"/>
</svg>

<svg width="30" height="30" fill="none" xmlns="http://www.w3.org/2000/svg"><path d="M30 0H0v30h30V0z" fill="#2E2E2E"/><path d="M7.771 9.13c.72 1.775 1.63 3.45 2.83 4.952.16.2.36.378.572.523.309.212.6.137.726-.216.132-.37.254-1.122.261-1.51a32.665 32.665 0 00-.057-2.7c-.036-.65-.267-1.222-1.224-1.394-.295-.054-.323-.297-.133-.54.395-.505.946-.585 1.543-.617.968-.052 1.939-.01 2.908 0 .394.004.791.035 1.18.12.507.11.779.466.862.961.043.256.066.518.06.776-.026 1.11-.08 2.22-.092 3.33a5.8 5.8 0 00.12 1.305c.13.59.532.74.944.312.523-.542.983-1.152 1.416-1.772.785-1.128 1.372-2.365 1.877-3.64.262-.659.462-.802 1.17-.804 1.33-.003 2.662-.004 3.993 0 .236.001.483.024.706.095.361.115.505.41.42.784-.198.877-.671 1.622-1.179 2.339-.814 1.15-1.668 2.272-2.502 3.408-.106.145-.2.3-.287.456-.312.563-.29.88.165 1.348.724.747 1.498 1.445 2.2 2.212.509.558.98 1.164 1.384 1.801.51.806.195 1.566-.759 1.7-.6.085-3.53.001-3.682 0a2.869 2.869 0 01-2.035-.811c-.619-.596-1.181-1.25-1.775-1.871a4.958 4.958 0 00-.576-.524c-.486-.37-.963-.289-1.19.282-.194.49-.362 1.777-.37 1.887-.04.575-.406.942-1.05.977-1.86.1-3.66-.106-5.339-1.005-1.422-.762-2.558-1.84-3.542-3.095-1.563-1.995-2.797-4.188-3.924-6.445-.058-.115-1.2-2.544-1.23-2.66-.102-.383-.007-.75.318-.877.202-.078 3.966 0 4.028.004.601.032 1.01.285 1.263.909z" fill="#fff"/></svg>
